Страховая/img/svg/listCheck.svg

<svg width="25" height="25" viewBox="0 0 25 25" fill="none" xmlns="http://www.w3.org/2000/svg">
<path d="M24.3147 4.2524C24.1683 4.09848 23.965 4.01144 23.7526 4.01144C23.7465 4.01144 23.7406 4.01144 23.7346 4.01144C22.904 4.01144 22.1297 3.67981 21.5528 3.07645C20.9672 2.46403 20.6676 1.66058 20.7094 0.814058C20.7199 0.601813 20.6429 0.394612 20.4964 0.240829C20.3498 0.0870449 20.1468 0 19.9343 0H5.0659C4.85339 0 4.65033 0.0870449 4.50379 0.240958C4.35725 0.394742 4.28029 0.602072 4.29077 0.814187C4.33255 1.66058 4.033 2.46403 3.44735 3.07658C2.8705 3.67981 2.09615 4.01157 1.26554 4.01157C1.26075 4.01157 1.25597 4.01157 1.25118 4.01157C1.03131 4.01027 0.832772 4.09784 0.685455 4.25253C0.538009 4.40734 0.461053 4.6161 0.472564 4.82938C0.739907 9.77994 2.60458 18.968 12.0895 24.8824C12.2152 24.9608 12.3576 25 12.5002 25C12.6427 25 12.7851 24.9608 12.9108 24.8824C22.3957 18.968 24.2604 9.77981 24.5276 4.82938C24.5391 4.61597 24.4622 4.40721 24.3147 4.2524ZM12.5002 23.304C4.41248 18.0444 2.46554 10.1954 2.07378 5.49301C3.02066 5.32539 3.88659 4.863 4.56898 4.14931C5.25046 3.43679 5.68246 2.52003 5.8083 1.55206H19.192C19.3179 2.52003 19.7498 3.43679 20.4313 4.14931C21.1139 4.863 21.9796 5.32552 22.9265 5.49301C22.5346 10.1954 20.5877 18.0444 12.5002 23.304Z" fill="#F8BD7A"/>
<path d="M13.0318 3.53973C9.23843 3.24613 5.91469 6.09365 5.62135 9.88651C5.32814 13.6794 8.17527 17.0038 11.9681 17.297C12.1483 17.3109 12.327 17.3178 12.5048 17.3178C16.0697 17.3178 19.0992 14.563 19.3786 10.9502C19.6719 7.15734 16.8248 3.83294 13.0318 3.53973ZM17.8313 10.8306C17.6039 13.7702 15.0269 15.9751 12.0879 15.7496C9.14828 15.5223 6.94164 12.9458 7.16888 10.0061C7.3854 7.20597 9.73328 5.0711 12.4963 5.0711C12.634 5.0711 12.7729 5.07641 12.9123 5.08714C15.8519 5.31439 18.0586 7.89094 17.8313 10.8306Z" fill="#F8BD7A"/>
<path d="M15.0753 8.25165L11.3999 11.3996L10.1309 9.91792C9.852 9.59237 9.36219 9.55447 9.03665 9.83333C8.7111 10.1122 8.67321 10.602 8.95206 10.9275L10.7259 12.9985C10.8795 13.1778 11.0969 13.2697 11.3157 13.2697C11.4943 13.2697 11.6739 13.2084 11.8201 13.0831L16.085 9.43044C16.4105 9.15159 16.4484 8.66178 16.1695 8.33623C15.8907 8.01082 15.4009 7.97292 15.0753 8.25165Z" fill="#F8BD7A"/>
</svg>

<svg width="25" height="25" fill="none" xmlns="http://www.w3.org/2000/svg"><path d="M24.315 4.252a.776.776 0 00-.562-.24h-.018a2.99 2.99 0 01-2.182-.936 3.027 3.027 0 01-.844-2.262.775.775 0 00-.775-.814H5.066a.776.776 0 00-.775.814 3.028 3.028 0 01-.844 2.263 2.993 2.993 0 01-2.181.935H1.25a.776.776 0 00-.779.818C.74 9.78 2.606 18.967 12.09 24.881a.775.775 0 00.822 0C22.396 18.968 24.26 9.78 24.528 4.83a.776.776 0 00-.213-.577zM12.5 23.304C4.412 18.044 2.466 10.195 2.074 5.493a4.53 4.53 0 002.495-1.344 4.63 4.63 0 001.24-2.597h13.383a4.63 4.63 0 001.24 2.597 4.53 4.53 0 002.495 1.344c-.392 4.702-2.34 12.551-10.427 17.811z" fill="#F8BD7A"/><path d="M13.032 3.54a6.906 6.906 0 00-7.41 6.347 6.907 6.907 0 006.883 7.43c3.565 0 6.594-2.754 6.874-6.367a6.907 6.907 0 00-6.347-7.41zm4.8 7.29a5.355 5.355 0 01-5.744 4.92 5.353 5.353 0 01-4.92-5.744 5.354 5.354 0 015.744-4.919 5.353 5.353 0 014.92 5.744z" fill="#F8BD7A"/><path d="M15.075 8.252L11.4 11.4l-1.27-1.482a.776.776 0 10-1.178 1.01l1.774 2.07a.774.774 0 001.094.085l4.265-3.653a.776.776 0 10-1.01-1.178z" fill="#F8BD7A"/></svg>
